icons/ticket-arrow-left-outline.svg

<svg xmlns="http://www.w3.org/2000/svg" width="24" height="24" viewBox="0 0 24 24">
  <path d="M20,4 C21.6568542,4 23,5.34314575 23,7 L23,7 L23,10 C23,10.5522847 22.5522847,11 22,11 L22,11 L21,11 C20.4756765,11 20.041054,11.4054732 20.0048111,11.8874652 L20.0048111,11.8874652 L20,12 C20,12.5243235 20.4054732,12.958946 20.8874652,12.9951889 L20.8874652,12.9951889 L21,13 L22,13 C22.5522847,13 23,13.4477153 23,14 L23,14 L23,17 C23,18.6568542 21.6568542,20 20,20 L20,20 L4,20 C2.34314575,20 1,18.6568542 1,17 L1,17 L1,14 C1,13.4477153 1.44771525,13 2,13 L2,13 L3,13 C3.52432346,13 3.95894602,12.5945268 3.99518895,12.1125348 L3.99518895,12.1125348 L4,12 C4,11.4756765 3.59452679,11.041054 3.11253483,11.0048111 L3.11253483,11.0048111 L3,11 L2,11 C1.44771525,11 1,10.5522847 1,10 L1,10 L1,7 C1,5.34314575 2.34314575,4 4,4 L4,4 Z M20,6 L4,6 C3.44771525,6 3,6.44771525 3,7 L3,7 L3,9 L3.22283965,9.00819622 C4.78446558,9.12340873 6,10.4263275 5.99932532,12.0367275 L5.99932532,12.0367275 L5.99180378,12.2228396 C5.87659127,13.7844656 4.57367247,15 3,15 L3,15 L3,17 C3,17.5128358 3.38604019,17.9355072 3.88337887,17.9932723 L3.88337887,17.9932723 L4,18 L20,18 C20.5522847,18 21,17.5522847 21,17 L21,17 L21,14.999 L20.7771604,14.9918038 C19.2155344,14.8765913 18,13.5736725 18.0006747,11.9632725 L18.0006747,11.9632725 L18.0081962,11.7771604 C18.1234087,10.2155344 19.4263275,9 21,9 L21,9 L21,7 C21,6.44771525 20.5522847,6 20,6 L20,6 Z M8.001,12.059 L8.002,12.059 L8,12.018 L8,12 L8.00004511,11.9904013 L8.00018018,11.980824 L8.0017331,11.9409686 C8.00232561,11.9308872 8.00307004,11.9208131 8.00399798,11.909968 L8.00399798,11.909968 L8.0110178,11.8515331 C8.01362808,11.834051 8.01670217,11.8166247 8.02016515,11.7992059 C8.0246398,11.7772539 8.02983363,11.7555635 8.03584514,11.734007 C8.04009773,11.7185367 8.04472872,11.7031487 8.04954668,11.6882636 C8.05612249,11.6682023 8.06331574,11.6484208 8.07122549,11.628664 L8.07122549,11.628664 L8.09365378,11.5769009 C8.10337664,11.5561086 8.11379392,11.5357061 8.12467117,11.5159379 L8.12467117,11.5159379 L8.14606743,11.4793398 C8.1617187,11.453725 8.17849009,11.4288693 8.19633458,11.4046934 L8.19633458,11.4046934 L8.22,11.374 L8.216,11.378 L8.21968877,11.374551 L8.232,11.359 L8.24220802,11.347434 L8.24220802,11.347434 L8.29289322,11.2928932 L11.2928932,8.29289322 L11.3871006,8.20970461 C11.7793918,7.90467972 12.3466228,7.93240926 12.7071068,8.29289322 C13.0976311,8.68341751 13.0976311,9.31658249 12.7071068,9.70710678 L12.7071068,9.70710678 L11.415,11 L15,11 L15.1166211,11.0067277 C15.6139598,11.0644928 16,11.4871642 16,12 C16,12.5522847 15.5522847,13 15,13 L15,13 L11.415,13 L12.7071068,14.2928932 L12.7902954,14.3871006 C13.0953203,14.7793918 13.0675907,15.3466228 12.7071068,15.7071068 C12.3165825,16.0976311 11.6834175,16.0976311 11.2928932,15.7071068 L11.2928932,15.7071068 L8.29289322,12.7071068 L8.21968877,12.625449 C8.2173721,12.6225624 8.21507113,12.6196628 8.20970461,12.6128994 C8.20517454,12.6070733 8.20071786,12.6012086 8.19631351,12.5951593 C8.17849009,12.5711307 8.1617187,12.546275 8.14599545,12.5207088 C8.13860692,12.5086131 8.13149883,12.4963944 8.12487577,12.484277 C8.11379392,12.4642939 8.10337664,12.4438914 8.09367336,12.4232215 L8.09367336,12.4232215 L8.07110396,12.3710585 C8.06331574,12.3515792 8.05612249,12.3317977 8.04973809,12.3121425 C8.04472872,12.2968513 8.04009773,12.2814633 8.03572097,12.2658396 C8.02983363,12.2444365 8.0246398,12.2227461 8.02024007,12.2007258 C8.01670217,12.1833753 8.01362808,12.165949 8.01101934,12.1489612 C8.00376119,12.1003621 8,12.0506203 8,12 L8.001,12.059 Z"/>
</svg>

<svg xmlns="http://www.w3.org/2000/svg" viewBox="0 0 24 24">
  <path d="M20 4a3 3 0 0 1 3 3v3a1 1 0 0 1-1 1h-1a1 1 0 0 0-1 .89V12c0 .52.4.96.89 1H22a1 1 0 0 1 1 1v3a3 3 0 0 1-3 3H4a3 3 0 0 1-3-3v-3a1 1 0 0 1 1-1h1a1 1 0 0 0 1-.89V12a1 1 0 0 0-.89-1H2a1 1 0 0 1-1-1V7a3 3 0 0 1 3-3zm0 2H4a1 1 0 0 0-1 1v2h.22A3 3 0 0 1 6 12.05v.18A3 3 0 0 1 3 15v2a1 1 0 0 0 .88 1H20a1 1 0 0 0 1-1v-2h-.22A3 3 0 0 1 18 11.95v-.18A3 3 0 0 1 21 9V7a1 1 0 0 0-1-1zM8 12.06v-.15l.01-.06a1.1 1.1 0 0 1 .06-.22l.02-.05.03-.06.03-.04.05-.08.02-.03.01-.01.01-.01.05-.06 3-3 .1-.08a1 1 0 0 1 1.32 1.5L11.4 11h3.71a1 1 0 0 1-.12 2H11.4l1.3 1.3.08.09a1 1 0 0 1-1.5 1.32l-3-3-.07-.08a3.01 3.01 0 0 1-.1-.15 1.02 1.02 0 0 1-.03-.06l-.02-.05A.95.95 0 0 1 8 12v.06z"/>
</svg>
